packages/blockchain-info-components/src/Images/img/banks/bank-logo-acorns.svg

<svg fill="none" height="32" viewBox="0 0 32 32" width="32" xmlns="http://www.w3.org/2000/svg"><path d="m14.8243 4c1.3112.52447 2.0691 1.57343 2.5673 2.76923 1.0935.26224 2.1451.44843 3.1469.76049 1.8356.56906 3.354 1.62587 4.3505 3.30678.6635 1.1198 1.0489 2.3313.7657 3.6714-.1232.6057-.4222.868-1.0332.868h-17.61188c-.1049 0-.20717 0-.29896-.0184-.52447-.2832-.60839-.7867-.71066-1.2771.00488-.6554.09749-1.3071.27535-1.9379.31309-1.033.88335-1.9697 1.65734-2.72205 1.37937-1.35052 3.07871-2.05594 4.94321-2.39947.5926-.11014 1.1879-.18881 1.7963-.28322.2622-.99913.3016-1.90909-.3514-2.73252zm-7.62587 12.2465h17.33387c.0341.5245.1076 1.0096.0945 1.4974-.063 2.0664-.5035 4.028-1.7387 5.7404-1.1586 1.5905-2.8589 2.7023-4.7806 3.1258-.6587.1252-1.2567.4667-1.6993.9703-.1568.1546-.3271.295-.5087.4196-.2587-.1556-.4966-.3432-.7081-.5586-.354-.472-.826-.6451-1.3741-.7683-2.4755-.5612-4.41345-1.8698-5.60664-4.1617-.67231-1.3554-1.03508-2.8431-1.06206-4.3558-.02622-.6215.03409-1.2456.04982-1.9091z" fill="#88c75a"/></svg>

<svg width="32" height="32" viewBox="0 0 32 32" fill="none" xmlns="http://www.w3.org/2000/svg">
<path d="M14.8243 4C16.1355 4.52447 16.8934 5.57343 17.3916 6.76923C18.4851 7.03147 19.5367 7.21766 20.5385 7.52972C22.3741 8.09878 23.8925 9.15559 24.889 10.8365C25.5525 11.9563 25.9379 13.1678 25.6547 14.5079C25.5315 15.1136 25.2325 15.3759 24.6215 15.3759H7.00962C6.90472 15.3759 6.80245 15.3759 6.71066 15.3575C6.18619 15.0743 6.10227 14.5708 6 14.0804C6.00488 13.425 6.09749 12.7733 6.27535 12.1425C6.58844 11.1095 7.1587 10.1728 7.93269 9.42045C9.31206 8.06993 11.0114 7.36451 12.8759 7.02098C13.4685 6.91084 14.0638 6.83217 14.6722 6.73776C14.9344 5.73863 14.9738 4.82867 14.3208 4.00524L14.8243 4ZM7.19843 16.2465H24.5323C24.5664 16.771 24.6399 17.2561 24.6268 17.7439C24.5638 19.8103 24.1233 21.7719 22.8881 23.4843C21.7295 25.0748 20.0292 26.1866 18.1075 26.6101C17.4488 26.7353 16.8508 27.0768 16.4082 27.5804C16.2514 27.735 16.0811 27.8754 15.8995 28C15.6408 27.8444 15.4029 27.6568 15.1914 27.4414C14.8374 26.9694 14.3654 26.7963 13.8173 26.6731C11.3418 26.1119 9.40385 24.8033 8.21066 22.5114C7.53835 21.156 7.17558 19.6683 7.1486 18.1556C7.12238 17.5341 7.18269 16.91 7.19842 16.2465H7.19843Z" fill="#88C75A"/>
</svg>
